Papirus/64x64/apps/preferences-desktop-locale.svg

<svg xmlns="http://www.w3.org/2000/svg" width="64" height="64" version="1">
 <path style="fill:#e4e4e4" d="M 41.9856,22 42,60 7.014,60 C 4.0144,60 4,57.488 4,57.488 L 4,25 c 0,0 0,-3 3,-3 z"/>
 <path style="opacity:0.1;fill:#ffffff" d="M 6.986492,22 C 4,22 4,25 4,25 l 0.00583,0.941406 C 4.0086583,25.765442 4.0933279,23 6.986492,23 L 42,23 42,22 6.986492,22 Z"/>
 <path style="opacity:0.2" d="m 19.14318,30.763332 c 0.8254,0.571438 1.5873,1.269812 2.2858,2.095121 l -1.238,1.521944 c -0.7628,-0.951965 -1.5566,-1.745935 -2.382,-2.379912 l 1.3334,-1.237953 m 0,5.999776 c 0.7619,0.571439 1.49204,1.206315 2.1904,1.904689 l -1.23808,1.61898 c -0.6986,-0.889967 -1.4606,-1.651939 -2.286,-2.285915 l 1.3334,-1.237954 m 0.38096,6.571155 1.52382,1.047601 c -0.762,2.601903 -1.8728,5.10981 -3.3332,7.52172 l -1.619,-1.237954 c 1.46032,-2.349113 2.6032,-4.793422 3.4286,-7.333127 M 23.99888,30 25.8084,30.380926 c -0.127,0.634936 -0.31746,1.238074 -0.57142,1.809472 l 7.4286,0 0,1.714196 -8.1904,0 -0.85714,1.428527 c -0.25398,0.507921 -0.66668,1.047601 -1.23808,1.61898 l -1.14288,-1.33325 c 1.20636,-1.460246 2.127,-3.333276 2.762,-5.618791 m -0.47618,5.90458 8.762,0 c -4e-5,1.968187 -0.0318,3.809458 -0.0954,5.523594 l 1.23808,0 0,1.714236 -1.33332,0 c -0.127,1.33329 -0.22224,2.634902 -0.2857,3.904655 l 1.42856,0 0,1.618999 -1.61904,0 C 31.36408,50.888041 30.47408,52 28.95008,52 28.56912,52 28.02944,51.9364 27.33104,51.809607 l -0.28572,-1.61898 c 0.82538,0.126796 1.46032,0.190393 1.90476,0.190393 0.44444,0 0.73014,-0.571418 0.85716,-1.714236 l -7.4286,0 c 0.25396,-1.714236 0.47618,-3.555467 0.66666,-5.523594 l -1.33332,0 0,-1.714236 1.5238,0 c 0.127,-1.777714 0.22222,-3.618865 0.28572,-5.523594 m 1.42856,5.523594 5.4286,0 c 0.0636,-1.33327 0.0954,-2.634702 0.0954,-3.904654 l -5.238,0 c -0.0636,1.396787 -0.1588,2.698299 -0.28572,3.904654 m 2.384,-3.427872 c 0.6984,0.444423 1.33334,0.952344 1.90478,1.523743 l -1.14286,1.428507 C 27.52482,40.318455 26.88988,39.747057 26.1915,39.239116 l 1.142,-1.237954 m 2.6666,9.047263 c 0.127,-1.333271 0.2222,-2.634902 0.28572,-3.904655 l -5.4286,0 c -0.127,1.396748 -0.28572,2.6983 -0.47618,3.904655 l 5.619,0 m -2.9524,-3.428473 c 0.76188,0.444424 1.4603,0.952345 2.0952,1.523744 l -1.2381,1.428526 c -0.63492,-0.698394 -1.3016,-1.301531 -2,-1.809452 l 1.14286,-1.142818 m -10,-11.332977 0,14.951842 -1.71428,0 0,-1.618979 -1.61904,0 0,2.476108 -1.71428,0 0,-15.809011 5.0476,0 m -3.3334,11.713763 1.61904,0 0,-10.094824 -1.61904,0 0,10.094824"/>
 <path style="opacity:0.2" d="M 4 57.488281 L 4 58.488281 C 4 58.488281 4.015425 61 7.015625 61 L 42 61 L 42 60 L 7.015625 60 C 4.015425 60 4 57.488281 4 57.488281 z"/>
 <path style="fill:#a3a3a3" d="m 41.992,22 -20,-18 0,38 20,18 z"/>
 <path style="fill:#2095f2" d="M 22,4.001 22,42 56.986742,42 C 59.985606,42 60,39.487066 60,39.487066 L 59.986,6.999922 c 0,0 0,-2.999922 -2.998864,-2.999922 z"/>
 <path style="opacity:0.2" d="m 38.42138,26 c 0.850389,-3.062991 1.62282,-6.24561 2.26074,-9 l 0.135,0 c 0.793229,3.279964 1.510242,5.862861 2.29448,9 l -4.6902,0 m 7.054,9 5.2638,0 L 43.8558,13 37.8834,13 31,35 l 5.0614,0 1.3497,-5 6.7148,0 1.35,5"/>
 <path style="fill:#ffffff" d="m 38.42138,25 c 0.850389,-3.062991 1.62282,-6.24561 2.26074,-9 l 0.135,0 c 0.793229,3.279964 1.510242,5.862861 2.29448,9 l -4.6902,0 m 7.054,9 5.2638,0 L 43.8558,12 37.8834,12 31,34 l 5.0614,0 1.3497,-5 6.7148,0 1.35,5"/>
 <path style="opacity:0.1;fill:#ffffff" d="M 22 4 L 22 5 L 57 5 C 60 5 60 8 60 8 L 60 7 C 60 7 60 4 57 4 L 22 4 z"/>
 <path style="opacity:0.2" d="M 60 39.496094 C 60 39.520094 59.969117 42 56.984375 42 L 22 42 L 22 43 L 56.984375 43 C 59.969117 43 60 40.520094 60 40.496094 L 60 39.496094 z"/>
</svg>

<svg xmlns="http://www.w3.org/2000/svg" width="64" height="64" version="1">
 <path style="fill:#e4e4e4" d="M 41.986,22 42,60 H 7.014 C 4.0144,60 4,57.488 4,57.488 V 25 C 4,25 4,22 7,22 Z"/>
 <path style="opacity:0.1;fill:#ffffff" d="M 6.9865,22 C 4,22 4,25 4,25 L 4.0058,25.941 C 4.0087,25.765 4.0933,23 6.9865,23 H 42 V 22 Z"/>
 <path style="opacity:0.2" d="M 19.143,30.763 C 19.969,31.335 20.73,32.033 21.429,32.858 L 20.191,34.38 C 19.428,33.428 18.634,32.634 17.809,32 L 19.142,30.763 M 19.142,36.762 C 19.904,37.334 20.634,37.969 21.333,38.667 L 20.095,40.286 C 19.396,39.396 18.634,38.634 17.809,38 L 19.142,36.762 M 19.523,43.333 21.047,44.381 C 20.285,46.983 19.174,49.491 17.714,51.903 L 16.095,50.665 C 17.555,48.316 18.698,45.871 19.523,43.332 M 23.999,30 25.808,30.381 C 25.681,31.016 25.491,31.619 25.237,32.19 H 32.666 V 33.905 H 24.475 L 23.618,35.333 C 23.364,35.841 22.951,36.381 22.38,36.952 L 21.237,35.619 C 22.443,34.159 23.364,32.286 23.999,30 M 23.523,35.905 H 32.285 C 32.285,37.873 32.253,39.714 32.19,41.428 H 33.428 V 43.142 H 32.094 C 31.967,44.476 31.872,45.777 31.809,47.047 H 33.237 V 48.666 H 31.618 C 31.364,50.888 30.474,52 28.95,52 28.569,52 28.029,51.936 27.331,51.81 L 27.045,50.191 C 27.871,50.317 28.506,50.381 28.95,50.381 29.395,50.381 29.68,49.81 29.807,48.667 H 22.379 C 22.633,46.953 22.855,45.111 23.045,43.143 H 21.712 V 41.429 H 23.236 C 23.363,39.651 23.458,37.81 23.522,35.905 M 24.95,41.429 H 30.379 C 30.442,40.096 30.474,38.794 30.474,37.524 H 25.236 C 25.172,38.921 25.077,40.223 24.95,41.429 M 27.334,38.001 C 28.033,38.446 28.668,38.953 29.239,39.525 L 28.096,40.953 C 27.525,40.318 26.89,39.747 26.192,39.239 L 27.333,38.001 M 30,47.048 C 30.127,45.715 30.222,44.414 30.286,43.144 H 24.857 C 24.73,44.541 24.571,45.842 24.381,47.048 H 30 M 27.048,43.62 C 27.81,44.064 28.508,44.572 29.143,45.144 L 27.905,46.572 C 27.27,45.874 26.603,45.271 25.905,44.763 L 27.048,43.62 M 17.048,32.287 V 47.239 H 15.333 V 45.62 H 13.714 V 48.096 H 12 V 32.287 H 17.048 M 13.714,44.001 H 15.333 V 33.906 H 13.714 V 44.001"/>
 <path style="opacity:0.2" d="M 4,57.488 V 58.488 C 4,58.488 4.0154,61 7.0156,61 H 42 V 60 H 7.0156 C 4.0154,60 4,57.488 4,57.488 Z"/>
 <path style="fill:#a3a3a3" d="M 41.992,22 21.992,4 V 42 L 41.992,60 Z"/>
 <path style="fill:#2095f2" d="M 22,4.001 V 42 H 56.987 C 59.986,42 60,39.487 60,39.487 L 59.986,6.9999 C 59.986,6.9999 59.986,4 56.987,4 Z"/>
 <path style="opacity:0.2" d="M 38.421,26 C 39.272,22.937 40.044,19.754 40.682,17 H 40.817 C 41.61,20.28 42.327,22.863 43.112,26 H 38.421 M 45.475,35 H 50.739 L 43.856,13 H 37.883 L 31,35 H 36.061 L 37.411,30 H 44.126 L 45.476,35"/>
 <path style="fill:#ffffff" d="M 38.421,25 C 39.272,21.937 40.044,18.754 40.682,16 H 40.817 C 41.61,19.28 42.327,21.863 43.112,25 H 38.421 M 45.475,34 H 50.739 L 43.856,12 H 37.883 L 31,34 H 36.061 L 37.411,29 H 44.126 L 45.476,34"/>
 <path style="opacity:0.1;fill:#ffffff" d="M 22,4 V 5 H 57 C 60,5 60,8 60,8 V 7 C 60,7 60,4 57,4 Z"/>
 <path style="opacity:0.2" d="M 60,39.496 C 60,39.52 59.969,42 56.984,42 H 22 V 43 H 56.984 C 59.969,43 60,40.52 60,40.496 Z"/>
</svg>
